Sources/FrostedUI/Resources/Icons.xcassets/arrowDownAngleLeft24.imageset/arrow-down-angle-left-24.svg

<svg width="24" height="24" viewBox="0 0 24 24" fill="none" xmlns="http://www.w3.org/2000/svg" data-fui-icon="true">
  <path
    d="M22.25 4C22.6642 4 23 4.33579 23 4.75V13.375C23 14.8247 21.8247 16 20.375 16H3.63867L6.76562 18.9551C7.06636 19.2396 7.07936 19.7147 6.79492 20.0156C6.51036 20.3164 6.0353 20.3294 5.73438 20.0449L1.23828 15.7949L1.18555 15.7393C1.06885 15.6038 1.00391 15.4305 1.00391 15.25C1.00391 15.0438 1.08847 14.8467 1.23828 14.7051L5.73438 10.4551C6.0353 10.1706 6.51036 10.1836 6.79492 10.4844C7.07936 10.7853 7.06636 11.2604 6.76562 11.5449L3.63867 14.5H20.375C20.9963 14.5 21.5 13.9963 21.5 13.375V4.75C21.5 4.33579 21.8358 4 22.25 4Z"
    fill="currentColor"
  />
</svg>

<svg xmlns="http://www.w3.org/2000/svg" width="24" height="24" fill="none" data-fui-icon="true" viewBox="0 0 24 24"><path fill="currentColor" d="M22.25 4a.75.75 0 0 1 .75.75v8.625A2.625 2.625 0 0 1 20.375 16H3.639l3.127 2.955a.75.75 0 0 1-1.032 1.09l-4.496-4.25-.052-.056a.75.75 0 0 1 .052-1.034l4.496-4.25a.75.75 0 0 1 1.032 1.09L3.639 14.5h16.736c.621 0 1.125-.504 1.125-1.125V4.75a.75.75 0 0 1 .75-.75"/></svg>
